src/assets/filled/Xrp.svg

<svg width="24" height="24" viewBox="0 0 24 24"  xmlns="http://www.w3.org/2000/svg">
<path d="M5.45993 2H4.0499C3.1199 2 2.64991 3.13 3.30991 3.79L9.03989 9.52C10.6799 11.16 13.3299 11.16 14.9699 9.52L20.6999 3.79C21.3599 3.13 20.8899 2 19.9599 2H18.5499C17.7199 2 16.9199 2.33 16.3299 2.92L12.7499 6.5C12.3399 6.91 11.6799 6.91 11.2699 6.5L7.68991 2.92C7.08991 2.33 6.28993 2 5.45993 2Z" />
<path d="M5.45993 21.9707H4.0499C3.1199 21.9707 2.64991 20.8407 3.30991 20.1807L9.03989 14.4507C10.6799 12.8107 13.3299 12.8107 14.9699 14.4507L20.6999 20.1807C21.3599 20.8407 20.8899 21.9707 19.9599 21.9707H18.5499C17.7199 21.9707 16.9199 21.6407 16.3299 21.0507L12.7499 17.4707C12.3399 17.0607 11.6799 17.0607 11.2699 17.4707L7.68991 21.0507C7.08991 21.6407 6.28993 21.9707 5.45993 21.9707Z" />
</svg>

<?xml version="1.0" encoding="UTF-8"?>
<svg width="24" height="24" viewBox="0 0 24 24" xmlns="http://www.w3.org/2000/svg">
 <path d="m5.4599 2h-1.41c-0.93 0-1.4 1.13-0.73999 1.79l5.73 5.73c1.64 1.64 4.29 1.64 5.93 0l5.73-5.73c0.66-0.66 0.19-1.79-0.74-1.79h-1.41c-0.83 0-1.63 0.33-2.22 0.92l-3.58 3.58c-0.41 0.41-1.07 0.41-1.48 0l-3.58-3.58c-0.6-0.59-1.4-0.92-2.23-0.92z"/>
 <path d="m5.4599 21.971h-1.41c-0.93 0-1.4-1.13-0.73999-1.79l5.73-5.73c1.64-1.64 4.29-1.64 5.93 0l5.73 5.73c0.66 0.66 0.19 1.79-0.74 1.79h-1.41c-0.83 0-1.63-0.33-2.22-0.92l-3.58-3.58c-0.41-0.41-1.07-0.41-1.48 0l-3.58 3.58c-0.6 0.59-1.4 0.92-2.23 0.92z"/>
</svg>
